static/images/duration.svg

<svg width="32" height="37" viewBox="0 0 32 37" fill="none" xmlns="http://www.w3.org/2000/svg">
<path d="M0 9.25V27.75L15.6 37L31.2 27.75V9.25L15.6 0L0 9.25Z" fill="#FBC5B4"/>
<path d="M15.834 10C13.4911 10 11.244 10.9308 9.58742 12.5874C7.93077 14.2442 7 16.4911 7 18.834C7 21.1768 7.93077 23.424 9.58742 25.0805C11.2442 26.7372 13.4911 27.668 15.834 27.668C18.1768 27.668 20.424 26.7372 22.0805 25.0805C23.7372 23.4238 24.668 21.1768 24.668 18.834C24.6651 16.4919 23.7336 14.2464 22.0774 12.5905C20.4213 10.9344 18.1758 10.0028 15.834 10ZM15.834 26.0619C13.9171 26.0619 12.0786 25.3004 10.7232 23.9449C9.36773 22.5895 8.60623 20.751 8.60623 18.8342C8.60623 16.9173 9.36773 15.0788 10.7232 13.7234C12.0787 12.3679 13.9171 11.6064 15.834 11.6064C17.7508 11.6064 19.5894 12.3679 20.9447 13.7234C22.3002 15.0789 23.0617 16.9173 23.0617 18.8342C23.0595 20.7505 22.2971 22.5875 20.9422 23.9425C19.5873 25.2975 17.7502 26.0598 15.8338 26.0621L15.834 26.0619Z" fill="#090940"/>
<path d="M16.6371 18.502V14.016C16.6371 13.7291 16.4841 13.4639 16.2356 13.3205C15.9872 13.177 15.6809 13.177 15.4325 13.3205C15.184 13.4639 15.031 13.7291 15.031 14.016V18.8345C15.031 19.0475 15.1157 19.2517 15.2663 19.4023L17.6756 21.8116C17.8795 22.0087 18.1724 22.0834 18.4458 22.0084C18.7193 21.9335 18.933 21.7197 19.0079 21.4463C19.0829 21.1728 19.0082 20.88 18.8111 20.676L16.6371 18.502Z" fill="#090940"/>
</svg>

<svg width="32" height="37" fill="none" xmlns="http://www.w3.org/2000/svg">
    <path d="M0 9.25v18.5L15.6 37l15.6-9.25V9.25L15.6 0 0 9.25Z" fill="#FBC5B4"/>
    <path d="M15.834 10a8.834 8.834 0 1 0 8.834 8.834A8.844 8.844 0 0 0 15.834 10Zm0 16.062a7.228 7.228 0 1 1 7.228-7.228 7.236 7.236 0 0 1-7.228 7.228Z" fill="#090940"/>
    <path d="M16.637 18.502v-4.486a.803.803 0 1 0-1.606 0v4.818c0 .213.085.418.235.568l2.41 2.41a.803.803 0 0 0 1.135-1.136l-2.174-2.174Z" fill="#090940"/>
</svg>
